X: 37602
T: Smoke Me A Kipper For Breakfast
R: jig
M: 6/8
K: Dmajor
|:D2F A2B|dcd fge-|eae cde|Agf ecA|
D2F A2B|dcd gfe-|eae cde|1 edc dAF:|2 edc dfg||
|:a2f d2f|aga gfe-|eae cde|Agf ecA|
a2f d2f|aba gfe-|eae cde|1 edc dfg:|2 edc dAF|

